SVG_Azure_Grouped/Application/Genomics Account.svg

<?xml version="1.0" encoding="UTF-8" standalone="no"?>
<!-- Generated by Microsoft Visio, SVG Export Genomics Account.svg Page-1 -->

<svg
   xmlns:dc="http://purl.org/dc/elements/1.1/"
   xmlns:cc="http://creativecommons.org/ns#"
   xmlns:rdf="http://www.w3.org/1999/02/22-rdf-syntax-ns#"
   xmlns:svg="http://www.w3.org/2000/svg"
   xmlns="http://www.w3.org/2000/svg"
   xmlns:sodipodi="http://sodipodi.sourceforge.net/DTD/sodipodi-0.dtd"
   xmlns:inkscape="http://www.inkscape.org/namespaces/inkscape"
   width="0.4164148in"
   height="0.78752124in"
   viewBox="0 0 29.981773 56.701675"
   xml:space="preserve"
   class="st6"
   version="1.1"
   id="svg58"
   sodipodi:docname="Genomics Account.svg"
   style="font-size:12px;overflow:visible;color-interpolation-filters:sRGB;fill:none;fill-rule:evenodd;stroke-linecap:square;stroke-miterlimit:3"
   inkscape:version="0.92.5 (2060ec1f9f, 2020-04-08)"><metadata
   id="metadata62"><rdf:RDF><cc:Work
       rdf:about=""><dc:format>image/svg+xml</dc:format><dc:type
         rdf:resource="http://purl.org/dc/dcmitype/StillImage" /></cc:Work></rdf:RDF></metadata><sodipodi:namedview
   pagecolor="#ffffff"
   bordercolor="#666666"
   borderopacity="1"
   objecttolerance="10"
   gridtolerance="10"
   guidetolerance="10"
   inkscape:pageopacity="0"
   inkscape:pageshadow="2"
   inkscape:window-width="640"
   inkscape:window-height="480"
   id="namedview60"
   showgrid="false"
   inkscape:zoom="1.4192053"
   inkscape:cx="19.985524"
   inkscape:cy="37.793634"
   inkscape:window-x="0"
   inkscape:window-y="0"
   inkscape:window-maximized="0"
   inkscape:current-layer="svg58" />
	<style
   type="text/css"
   id="style2">
	<![CDATA[
		.st1 {fill:none;stroke:none;stroke-linecap:butt;stroke-width:34}
		.st2 {fill:url(#grad0-8);stroke:none;stroke-linecap:butt;stroke-width:34}
		.st3 {fill:url(#grad0-12);stroke:none;stroke-linecap:butt;stroke-width:34}
		.st4 {fill:#0078d4;stroke:none;stroke-linecap:butt;stroke-width:34}
		.st5 {fill:#32bedd;stroke:none;stroke-linecap:butt;stroke-width:34}
		.st6 {fill:none;fill-rule:evenodd;font-size:12px;overflow:visible;stroke-linecap:square;stroke-miterlimit:3}
	]]>
	</style>

	<defs
   id="Patterns_And_Gradients">
		<linearGradient
   id="grad0-8"
   x1="-3.0211685e-16"
   y1="175.55318"
   x2="7.7759051"
   y2="175.55318"
   gradientTransform="scale(1.4699253,0.68030666)"
   gradientUnits="userSpaceOnUse">
			<stop
   offset="0"
   stop-color="#faa21d"
   stop-opacity="1"
   id="stop4" />
			<stop
   offset="0.28"
   stop-color="#f99e1b"
   stop-opacity="1"
   id="stop6" />
			<stop
   offset="0.57"
   stop-color="#f69113"
   stop-opacity="1"
   id="stop8" />
			<stop
   offset="0.87"
   stop-color="#f27d07"
   stop-opacity="1"
   id="stop10" />
			<stop
   offset="1"
   stop-color="#ef7100"
   stop-opacity="1"
   id="stop12" />
		</linearGradient>
		<linearGradient
   id="grad0-12"
   x1="0"
   y1="176.14656"
   x2="4.6831293"
   y2="176.14656"
   gradientTransform="scale(1.4498852,0.68970976)"
   gradientUnits="userSpaceOnUse">
			<stop
   offset="0"
   stop-color="#003c90"
   stop-opacity="1"
   id="stop15" />
			<stop
   offset="0.15"
   stop-color="#194f9b"
   stop-opacity="1"
   id="stop17" />
			<stop
   offset="1"
   stop-color="#194f9b"
   stop-opacity="1"
   id="stop19" />
		</linearGradient>
	</defs>
	<g
   id="g56"
   transform="translate(-34.003346,-34.002625)">
		<title
   id="title23">Page-1</title>
		<g
   id="group13866-1"
   transform="translate(33.43,-34.0157)">
			<title
   id="title25">Genomics Account.13866</title>
			<g
   id="group13867-2">
				<title
   id="title27">Icon-machinelearning-164</title>
				<g
   id="shape13868-3"
   transform="translate(6.41265,-19.1638)">
					<title
   id="title29">Sheet.13868</title>
					<path
   d="m 18.25,115.83 c 0,-5.32 -5.32,-8.85 -9.12,-10.71 -3.8,1.86 -9.13,5.39 -9.13,10.71 0,0.8 0.48,4.83 9.13,8.89 8.65,-4.06 9.12,-8.09 9.12,-8.89 z"
   class="st1"
   id="path31"
   inkscape:connector-curvature="0"
   style="fill:none;stroke:none;stroke-width:34;stroke-linecap:butt" />
				</g>
				<g
   id="shape13869-5"
   transform="translate(9.83952,-13.8073)">
					<title
   id="title34">Sheet.13869</title>
					<path
   d="m 9.09,120.86 -0.85,-0.37 c -0.91,-0.36 -1.73,-0.7 -2.47,-1.06 -0.75,0.36 -1.56,0.7 -2.48,1.06 l -0.98,0.37 -2.31,1 a 35.9651,35.2667 -180 0 0 5.7,2.86 35.9651,35.2667 -180 0 0 5.73,-2.86 z"
   class="st2"
   id="path36"
   inkscape:connector-curvature="0"
   style="fill:url(#grad0-8);stroke:none;stroke-width:34;stroke-linecap:butt" />
				</g>
				<g
   id="shape13870-9"
   transform="translate(15.5397,-37.9949)">
					<title
   id="title39">Sheet.13870</title>
					<path
   d="m 5.67,121.49 a 18.7629,18.3986 0 0 1 -2.51,1.2 C 1.97,123.09 0,123.95 0,123.95 l 1.46,0.77 2.78,-1.1 a 17.2701,16.9347 -180 0 0 2.55,-1.4 z"
   class="st3"
   id="path41"
   inkscape:connector-curvature="0"
   style="fill:url(#grad0-12);stroke:none;stroke-width:34;stroke-linecap:butt" />
				</g>
				<g
   id="shape13871-13">
					<title
   id="title44">Sheet.13871</title>
					<path
   d="m 7.26,116.27 a 8.38056,8.21781 -180 0 0 -1.42,3.02 h 21.2 v 1.67 H 5.53 v 1.26 a 2.51077,2.46202 0 0 1 -2.44,2.5 2.51077,2.46202 0 0 1 -2.51,-2.4 15.1325,14.8386 0 0 1 9.29,-14.14 35.9651,35.2667 -180 0 0 5.67,2.73 l -0.51,0.23 -0.95,0.4 a 20.7309,20.3283 -180 0 0 -5.33,2.9 h 18.16 v 1.83 z m 11.67,-9.22 -0.85,-0.36 c -0.91,-0.37 -1.73,-0.7 -2.47,-1.07 -0.75,0.37 -1.56,0.7 -2.48,1.07 l -0.98,0.36 -2.31,1 a 35.9651,35.2667 -180 0 0 5.7,2.86 35.9651,35.2667 -180 0 0 5.73,-2.86 z M 28.3,71.65 H 5.6 a 6.03943,5.92215 0 0 1 0,-0.93 2.4915525,2.4431676 -180 0 0 -4.96,-0.47 c 0,0.3 -0.64,7.72 9.34,13.31 a 33.3187,32.6716 0 0 1 5.56,-2.99 l -2.14,-0.9 a 18.1522,17.7997 0 0 1 -3.05,-1.8 H 23.92 V 76.34 H 8.35 A 10.7217,10.5135 0 0 1 6.18,73.35 H 28.3 Z m -7.09,11.85 -1.46,0.76 h -0.38 a 30.2989,29.7105 -180 0 0 -3.83,1.7 21.9184,21.4927 0 0 1 6.48,4.56 H 3.26 v 1.66 h 20.05 a 8.92343,8.75014 0 0 1 1.19,2.96 H 3.26 v 1.7 h 21.37 a 6.10729,5.98869 0 0 1 -1.29,3.02 H 3.26 v 1.7 h 18.56 a 25.3452,24.8531 0 0 1 -6.28,3.99 c 0.75,0.37 1.56,0.7 2.48,1.07 l 0.84,0.36 2.31,1 C 28.6,103.46 29.55,98.7 29.55,96.6 A 16.5236,16.2027 -180 0 0 21.21,83.5 Z"
   class="st4"
   id="path46"
   inkscape:connector-curvature="0"
   style="fill:#0078d4;stroke:none;stroke-width:34;stroke-linecap:butt" />
				</g>
				<g
   id="shape13872-15"
   transform="translate(1.42503,-0.133082)">
					<title
   id="title49">Sheet.13872</title>
					<path
   d="m 10.72,107.18 -2.31,1 C 0.95,103.66 0,98.9 0,96.8 A 16.5236,16.2027 0 0 1 8.45,83.5 l 1.46,0.76 h 0.37 a 30.2989,29.7105 0 0 1 3.83,1.83 c -3.8,1.86 -9.12,5.39 -9.12,10.71 0,0.8 0.47,4.83 9.12,8.89 -0.74,0.36 -1.56,0.7 -2.47,1.06 z M 29.11,70.39 a 2.51077,2.46202 -180 0 0 -2.71,-2.23 2.40899,2.3622 -180 0 0 -2.24,2.69 c 0,0 1.12,4.43 -7.03,8.62 l -3.02,1.23 a 33.3187,32.6716 0 0 1 5.67,2.93 c 9.98,-5.52 9.37,-12.94 9.33,-13.24 z m -9.26,37.79 a 35.9651,35.2667 0 0 1 -5.74,2.86 l 0.51,0.24 0.95,0.4 c 4.21,1.79 8.72,4.19 8.59,10.54 a 2.51077,2.46202 -180 0 0 2.44,2.5 2.51077,2.46202 -180 0 0 2.51,-2.4 15.1325,14.8386 -180 0 0 -9.26,-14.14 z M 19,84.03 19.78,83.63 A 33.3187,32.6716 -180 0 0 14.11,80.7 33.3187,32.6716 -180 0 0 8.45,83.63 l 1.46,0.76 h 0.37 a 30.2989,29.7105 0 0 1 3.83,1.7 c 2.01,-0.76 3.23,-1.26 3.97,-1.6 h 0.24 A 3.80009,3.72629 -180 0 0 19,84.13 Z"
   class="st5"
   id="path51"
   inkscape:connector-curvature="0"
   style="fill:#32bedd;stroke:none;stroke-width:34;stroke-linecap:butt" />
				</g>
			</g>
		</g>
	</g>
</svg>

<?xml version="1.0" encoding="UTF-8" standalone="no"?>
<!DOCTYPE svg PUBLIC "-//W3C//DTD SVG 1.1//EN" "http://www.w3.org/Graphics/SVG/1.1/DTD/svg11.dtd">
<!-- Generated by Microsoft Visio, SVG Export Genomics Account.svg Page-1 -->
<svg xmlns="http://www.w3.org/2000/svg" xmlns:xlink="http://www.w3.org/1999/xlink" xmlns:ev="http://www.w3.org/2001/xml-events"
		width="1.3609in" height="1.73219in" viewBox="0 0 97.9845 124.718" xml:space="preserve" color-interpolation-filters="sRGB"
		class="st6">
	<style type="text/css">
	<![CDATA[
		.st1 {fill:none;stroke:none;stroke-linecap:butt;stroke-width:34}
		.st2 {fill:url(#grad0-8);stroke:none;stroke-linecap:butt;stroke-width:34}
		.st3 {fill:url(#grad0-12);stroke:none;stroke-linecap:butt;stroke-width:34}
		.st4 {fill:#0078d4;stroke:none;stroke-linecap:butt;stroke-width:34}
		.st5 {fill:#32bedd;stroke:none;stroke-linecap:butt;stroke-width:34}
		.st6 {fill:none;fill-rule:evenodd;font-size:12px;overflow:visible;stroke-linecap:square;stroke-miterlimit:3}
	]]>
	</style>

	<defs id="Patterns_And_Gradients">
		<linearGradient id="grad0-8" x1="0" y1="0" x2="1" y2="0" gradientTransform="rotate(90 0.5 0.5)">
			<stop offset="0" stop-color="#faa21d" stop-opacity="1"/>
			<stop offset="0.28" stop-color="#f99e1b" stop-opacity="1"/>
			<stop offset="0.57" stop-color="#f69113" stop-opacity="1"/>
			<stop offset="0.87" stop-color="#f27d07" stop-opacity="1"/>
			<stop offset="1" stop-color="#ef7100" stop-opacity="1"/>
		</linearGradient>
		<linearGradient id="grad0-12" x1="0" y1="0" x2="1" y2="0" gradientTransform="rotate(76.855915622808 0.5 0.5)">
			<stop offset="0" stop-color="#003c90" stop-opacity="1"/>
			<stop offset="0.15" stop-color="#194f9b" stop-opacity="1"/>
			<stop offset="1" stop-color="#194f9b" stop-opacity="1"/>
		</linearGradient>
	</defs>
	<g>
		<title>Page-1</title>
		<g id="group13519-1" transform="translate(33.43,-34.0157)">
			<title>Genomics Account.13519</title>
			<g id="group13520-2">
				<title>Icon-machinelearning-164</title>
				<g id="shape13521-3" transform="translate(6.41265,-19.1638)">
					<title>Sheet.13521</title>
					<path d="M18.25 115.83 C18.25 110.51 12.93 106.98 9.13 105.12 C5.33 106.98 0 110.51 0 115.83 C0 116.63 0.48 120.66
								 9.13 124.72 C17.78 120.66 18.25 116.63 18.25 115.83 Z" class="st1"/>
				</g>
				<g id="shape13522-5" transform="translate(9.83952,-13.8073)">
					<title>Sheet.13522</title>
					<path d="M9.09 120.86 L8.24 120.49 C7.33 120.13 6.51 119.79 5.77 119.43 C5.02 119.79 4.21 120.13 3.29 120.49
								 L2.31 120.86 L0 121.86 A35.9651 35.2667 -180 0 0 5.7 124.72 A35.9651 35.2667 -180 0 0 11.43 121.86
								 L9.09 120.86 Z" class="st2"/>
				</g>
				<g id="shape13523-9" transform="translate(15.5397,-37.9949)">
					<title>Sheet.13523</title>
					<path d="M5.67 121.49 A18.7629 18.3986 0 0 1 3.16 122.69 C1.97 123.09 0 123.95 0 123.95 L1.46 124.72 L4.24 123.62
								 A17.2701 16.9347 -180 0 0 6.79 122.22 L5.67 121.49 Z" class="st3"/>
				</g>
				<g id="shape13524-13">
					<title>Sheet.13524</title>
					<path d="M7.26 116.27 A8.38056 8.21781 -180 0 0 5.84 119.29 L27.04 119.29 L27.04 120.96 L5.53 120.96 L5.53 122.22
								 A2.51077 2.46202 0 0 1 3.09 124.72 A2.51077 2.46202 0 0 1 0.58 122.32 A15.1325 14.8386 0 0 1 9.87
								 108.18 A35.9651 35.2667 -180 0 0 15.54 110.91 L15.03 111.14 L14.08 111.54 A20.7309 20.3283 -180
								 0 0 8.75 114.44 L26.91 114.44 L26.91 116.27 L7.26 116.27 ZM18.93 107.05 L18.08 106.69 C17.17 106.32
								 16.35 105.99 15.61 105.62 C14.86 105.99 14.05 106.32 13.13 106.69 L12.15 107.05 L9.84 108.05 A35.9651
								 35.2667 -180 0 0 15.54 110.91 A35.9651 35.2667 -180 0 0 21.27 108.05 L18.93 107.05 ZM28.3 71.65
								 L5.6 71.65 A6.03943 5.92215 0 0 1 5.6 70.72 A2.48821 2.43989 -180 0 0 0.64 70.25 C0.64 70.55 0 77.97
								 9.98 83.56 A33.3187 32.6716 0 0 1 15.54 80.57 L13.4 79.67 A18.1522 17.7997 0 0 1 10.35 77.87 L23.92
								 77.87 L23.92 76.34 L8.35 76.34 A10.7217 10.5135 0 0 1 6.18 73.35 L28.3 73.35 L28.3 71.65 ZM21.21
								 83.5 L19.75 84.26 L19.37 84.26 A30.2989 29.7105 -180 0 0 15.54 85.96 A21.9184 21.4927 0 0 1 22.02
								 90.52 L3.26 90.52 L3.26 92.18 L23.31 92.18 A8.92343 8.75014 0 0 1 24.5 95.14 L3.26 95.14 L3.26 96.84
								 L24.63 96.84 A6.10729 5.98869 0 0 1 23.34 99.86 L3.26 99.86 L3.26 101.56 L21.82 101.56 A25.3452
								 24.8531 0 0 1 15.54 105.55 C16.29 105.92 17.1 106.25 18.02 106.62 L18.86 106.98 L21.17 107.98 C28.6
								 103.46 29.55 98.7 29.55 96.6 A16.5236 16.2027 -180 0 0 21.21 83.5 Z" class="st4"/>
				</g>
				<g id="shape13525-15" transform="translate(1.42503,-0.133082)">
					<title>Sheet.13525</title>
					<path d="M10.72 107.18 L8.41 108.18 C0.95 103.66 0 98.9 0 96.8 A16.5236 16.2027 0 0 1 8.45 83.5 L9.91 84.26 L10.28
								 84.26 A30.2989 29.7105 0 0 1 14.11 86.09 C10.31 87.95 4.99 91.48 4.99 96.8 C4.99 97.6 5.46 101.63
								 14.11 105.69 C13.37 106.05 12.55 106.39 11.64 106.75 L10.72 107.18 ZM29.11 70.39 A2.51077 2.46202
								 -180 0 0 26.4 68.16 A2.40899 2.3622 -180 0 0 24.16 70.85 C24.16 70.85 25.28 75.28 17.13 79.47 L14.11
								 80.7 A33.3187 32.6716 0 0 1 19.78 83.63 C29.76 78.11 29.15 70.69 29.11 70.39 ZM19.85 108.18 A35.9651
								 35.2667 0 0 1 14.11 111.04 L14.62 111.28 L15.57 111.68 C19.78 113.47 24.29 115.87 24.16 122.22 A2.51077
								 2.46202 -180 0 0 26.6 124.72 A2.51077 2.46202 -180 0 0 29.11 122.32 A15.1325 14.8386 -180 0 0 19.85
								 108.18 ZM19 84.03 L19.78 83.63 A33.3187 32.6716 -180 0 0 14.11 80.7 A33.3187 32.6716 -180 0 0 8.45
								 83.63 L9.91 84.39 L10.28 84.39 A30.2989 29.7105 0 0 1 14.11 86.09 C16.12 85.33 17.34 84.83 18.08
								 84.49 L18.32 84.49 A3.80009 3.72629 -180 0 0 19 84.13 L19 84.03 Z" class="st5"/>
				</g>
			</g>
		</g>
	</g>
</svg>
